src/Components/SVG/Dead.svg

<?xml version="1.0" ?><svg viewBox="0 0 64 64" xmlns="http://www.w3.org/2000/svg"><title/><g data-name="17-R.I.P" id="_17-R.I.P"><path d="M32,1A23,23,0,0,0,9,24V55H55V24A23,23,0,0,0,32,1Z" style="fill:#f5f5f5"/><path d="M59,59v4H5V59a4,4,0,0,1,4-4H55A4,4,0,0,1,59,59Z" style="fill:#055d8d"/><path d="M55,55v1.25C55,58.321,53.627,60,51.933,60H12.067C10.373,60,9,58.321,9,56.25V55a4,4,0,0,0-4,4v4H59V59A4,4,0,0,0,55,55Z" style="fill:#072c58"/><path d="M51,47H42A26,26,0,0,1,16,21h0A20,20,0,0,1,34.071,1.1C33.388,1.036,32.7,1,32,1A23,23,0,0,0,9,24V55H55V43A4,4,0,0,1,51,47Z" style="fill:#e3e3e3"/><path d="M25,20a5.006,5.006,0,0,0-5-5H18a1,1,0,0,0-1,1V30h2V25.167l3.516,2.11A1,1,0,0,1,23,28.13V30h2V28.13a3.013,3.013,0,0,0-1.455-2.568l-1.6-.958a5.129,5.129,0,0,0,1.593-1.072A5.006,5.006,0,0,0,25,20Zm-2.872,2.118A3.018,3.018,0,0,1,20,23H19V17h1a3,3,0,0,1,2.128,5.118Z" style="fill:#055d8d"/><rect height="15" style="fill:#055d8d" width="2" x="31" y="15"/><path d="M42,15H40a1,1,0,0,0-1,1V30h2V25h1a5,5,0,0,0,0-10Zm2.128,7.118A3.018,3.018,0,0,1,42,23H41V17h1a3,3,0,0,1,2.128,5.118Z" style="fill:#055d8d"/><rect height="2" style="fill:#055d8d" width="2" x="27" y="28"/><rect height="2" style="fill:#055d8d" width="2" x="35" y="28"/><rect height="2" style="fill:#055d8d" width="14" x="17" y="48"/><rect height="2" style="fill:#055d8d" width="14" x="33" y="48"/><rect height="8" style="fill:#34c1ad" width="12" x="26" y="35"/><path d="M11,24a21,21,0,0,1,42,0V55h2V24A23,23,0,0,0,9,24V55h2Z" style="fill:#055d8d"/><rect height="4" style="fill:#072c58" width="2" x="53" y="51"/><rect height="4" style="fill:#072c58" width="2" x="9" y="51"/></g></svg>

<?xml version="1.0" encoding="utf-8"?>
<!-- Generator: Adobe Illustrator 21.0.2, SVG Export Plug-In . SVG Version: 6.00 Build 0)  -->
<svg version="1.1" id="Layer_1" xmlns="http://www.w3.org/2000/svg" xmlns:xlink="http://www.w3.org/1999/xlink" x="0px" y="0px"
	 viewBox="0 0 64 64" style="enable-background:new 0 0 64 64;" xml:space="preserve">
<style type="text/css">
	.st0{fill:#F5F5F5;}
	.st1{fill:#055D8D;}
	.st2{fill:#072C58;}
	.st3{fill:#34C1AD;}
</style>
<title></title>
<g id="_17-R.I.P">
	<path class="st0" d="M32,1C19.3,1,9,11.3,9,24v31h46V24C55,11.3,44.7,1,32,1z"/>
	<path class="st1" d="M59,59v4H5v-4c0-2.2,1.8-4,4-4h46C57.2,55,59,56.8,59,59z"/>
	<path class="st2" d="M55,55v1.2c0,2.1-1.4,3.8-3.1,3.8H12.1C10.4,60,9,58.3,9,56.2V55c-2.2,0-4,1.8-4,4v4h54v-4
		C59,56.8,57.2,55,55,55z"/>
	<path class="st1" d="M25,20c0-2.8-2.2-5-5-5h-2c-0.6,0-1,0.4-1,1v14h2v-4.8l3.5,2.1c0.3,0.2,0.5,0.5,0.5,0.9V30h2v-1.9
		c0-1.1-0.6-2-1.5-2.6l-1.6-1c0.6-0.3,1.1-0.6,1.6-1.1C24.5,22.6,25,21.3,25,20z M22.1,22.1C21.6,22.7,20.8,23,20,23h-1v-6h1
		c1.7,0,3,1.3,3,3C23,20.8,22.7,21.6,22.1,22.1z"/>
	<rect x="31" y="15" class="st1" width="2" height="15"/>
	<path class="st1" d="M42,15h-2c-0.6,0-1,0.4-1,1v14h2v-5h1c2.8,0,5-2.2,5-5S44.8,15,42,15z M44.1,22.1C43.6,22.7,42.8,23,42,23h-1
		v-6h1c1.7,0,3,1.3,3,3C45,20.8,44.7,21.6,44.1,22.1z"/>
	<rect x="27" y="28" class="st1" width="2" height="2"/>
	<rect x="35" y="28" class="st1" width="2" height="2"/>
	<rect x="17" y="48" class="st1" width="14" height="2"/>
	<rect x="33" y="48" class="st1" width="14" height="2"/>
	<rect x="26" y="35" class="st3" width="12" height="8"/>
	<path class="st1" d="M11,24c0-11.6,9.4-21,21-21s21,9.4,21,21v31h2V24C55,11.3,44.7,1,32,1S9,11.3,9,24v31h2V24z"/>
	<rect x="53" y="51" class="st2" width="2" height="4"/>
	<rect x="9" y="51" class="st2" width="2" height="4"/>
</g>
</svg>
